packages/hms_room_kit/lib/src/assets/icons/watching.svg

<svg width="16" height="16" viewBox="0 0 16 16" fill="none" xmlns="http://www.w3.org/2000/svg">
<g id="Eye/Eye On">
<path id="Vector" fill-rule="evenodd" clip-rule="evenodd" d="M3.28722 8.18715C3.19747 8.04818 3.12502 7.92784 3.07038 7.83341C3.12502 7.73897 3.19747 7.61863 3.28722 7.47967C3.51773 7.12275 3.8591 6.6481 4.30229 6.17536C5.19778 5.22017 6.44979 4.33338 8.00004 4.33338C9.5503 4.33338 10.8023 5.22017 11.6978 6.17536C12.141 6.6481 12.4824 7.12275 12.7129 7.47967C12.8026 7.61863 12.8751 7.73897 12.9297 7.83341C12.8751 7.92784 12.8026 8.04818 12.7129 8.18715C12.4824 8.54407 12.141 9.01871 11.6978 9.49145C10.8023 10.4466 9.5503 11.3334 8.00004 11.3334C6.44979 11.3334 5.19778 10.4466 4.30229 9.49145C3.8591 9.01871 3.51773 8.54407 3.28722 8.18715ZM13.5001 7.83341C13.9473 7.6098 13.9472 7.60963 13.9471 7.60945L13.5001 7.83341ZM13.9471 7.60945C14.0175 7.75021 14.0177 7.91625 13.9473 8.05701L13.5001 7.83341C13.9473 8.05701 13.947 8.05763 13.9469 8.05781L13.9463 8.05897L13.9446 8.06239L13.9389 8.0735C13.9341 8.08277 13.9274 8.09575 13.9187 8.11219C13.9013 8.14506 13.8761 8.19179 13.8431 8.25041C13.7772 8.36759 13.6802 8.53265 13.5529 8.72968C13.299 9.12276 12.9217 9.64812 12.4273 10.1754C11.4478 11.2202 9.94981 12.3334 8.00004 12.3334C6.05028 12.3334 4.55226 11.2202 3.57274 10.1754C3.07843 9.64812 2.70104 9.12276 2.44717 8.72968C2.31993 8.53265 2.2229 8.36759 2.15699 8.25041C2.12401 8.19179 2.09877 8.14506 2.08138 8.11219C2.07268 8.09575 2.06594 8.08277 2.06117 8.0735L2.0555 8.06239L2.05377 8.05897L2.05279 8.05701L2.5 7.83341C2.05279 8.05701 2.05269 8.05683 2.05279 8.05701C1.9824 7.91625 1.9824 7.75056 2.05279 7.6098L2.49959 7.8332C2.05279 7.6098 2.05309 7.60919 2.05319 7.609L2.05377 7.60784L2.0555 7.60442L2.06117 7.59332C2.06594 7.58404 2.07268 7.57106 2.08138 7.55462C2.09877 7.52175 2.12401 7.47502 2.15699 7.4164C2.2229 7.29922 2.31993 7.13416 2.44717 6.93714C2.70104 6.54405 3.07843 6.01869 3.57274 5.49142C4.55226 4.4466 6.05028 3.33337 8.00004 3.33337C9.94981 3.33337 11.4478 4.4466 12.4273 5.49142C12.9217 6.01869 13.299 6.54405 13.5529 6.93714C13.6802 7.13416 13.7772 7.29922 13.8431 7.4164C13.8761 7.47502 13.9013 7.52175 13.9187 7.55462C13.9274 7.57106 13.9341 7.58404 13.9389 7.59332L13.9446 7.60442L13.9463 7.60784L13.9471 7.60945ZM7.00011 7.83345C7.00011 7.28116 7.44783 6.83345 8.00012 6.83345C8.55241 6.83345 9.00012 7.28116 9.00012 7.83345C9.00012 8.38574 8.55241 8.83346 8.00012 8.83346C7.44783 8.83346 7.00011 8.38574 7.00011 7.83345ZM8.00012 5.83344C6.89554 5.83344 6.0001 6.72888 6.0001 7.83345C6.0001 8.93803 6.89554 9.83347 8.00012 9.83347C9.10469 9.83347 10.0001 8.93803 10.0001 7.83345C10.0001 6.72888 9.10469 5.83344 8.00012 5.83344Z" fill="white"/>
</g>
</svg>

<svg xmlns="http://www.w3.org/2000/svg" width="16" height="16" fill="none" viewBox="0 0 16 16"><path fill="#fff" fill-rule="evenodd" d="M3.287 8.187a8.533 8.533 0 0 1-.217-.354 9.338 9.338 0 0 1 1.232-1.658C5.198 5.22 6.45 4.333 8 4.333c1.55 0 2.802.887 3.698 1.842a9.337 9.337 0 0 1 1.232 1.658 9.337 9.337 0 0 1-1.232 1.658c-.896.956-2.148 1.842-3.698 1.842-1.55 0-2.802-.886-3.698-1.842a9.338 9.338 0 0 1-1.015-1.304ZM13.5 7.833l.447-.224-.447.224Zm.447-.224a.5.5 0 0 1 0 .448l-.447-.224.447.225v.001l-.002.003-.006.011-.02.04-.076.137a10.335 10.335 0 0 1-1.416 1.925C11.447 11.22 9.95 12.333 8 12.333c-1.95 0-3.448-1.113-4.427-2.158A10.339 10.339 0 0 1 2.08 8.112a3.803 3.803 0 0 1-.02-.039l-.006-.01-.001-.004-.001-.002.447-.224-.447.224a.5.5 0 0 1 0-.447l.447.223a32.812 32.812 0 0 1-.447-.224v-.001l.002-.004.006-.01a3.681 3.681 0 0 1 .096-.178 10.338 10.338 0 0 1 1.416-1.925C4.553 4.447 6.05 3.333 8 3.333c1.95 0 3.448 1.114 4.427 2.158a10.334 10.334 0 0 1 1.492 2.064l.02.038.006.011.001.004.001.001ZM7 7.833a1 1 0 1 1 2 0 1 1 0 0 1-2 0Zm1-2a2 2 0 1 0 0 4 2 2 0 0 0 0-4Z" clip-rule="evenodd"/></svg>
